X: 43147
T: Winnifred's Strathspey
R: barndance
M: 4/4
K: Gmajor
DE|:G3B A2 GF|E2 DE G2AB|c3e d2 g2|dBGB A2DE/F/|
G3 B A2 GF|E2 DE G2 gf/e/|d2 GA/B/ cBAF|1 G2 GA G2 DE/F/:|2 G2 GA GABc||
|:d2 g2 B2 d2|GAB/A/G D2 A>B|cdec BdgB|cBAG A2 Bc|
d2 g2 g2 B2|cBAG E3G|D2 cB AGFA|1 G2 GA GABc:|2 G2 GA G4||

